src/assets/bro_n_bro_logo.svg

<svg width="38" height="34" viewBox="0 0 38 34" fill="none" xmlns="http://www.w3.org/2000/svg">
<g id="Frame 24">
<rect x="0.572266" y="0.44928" width="36.855" height="32.9732" rx="16.4866" fill="black"/>
<g id="Vector">
<path d="M3.729 17.7492C4.25931 19.2311 5.55197 20.5334 7.09892 21.5264C9.14082 22.837 11.6897 23.6523 13.7195 23.6523H24.2773C26.307 23.6523 28.8559 22.837 30.8978 21.5264C32.4448 20.5334 33.7374 19.2311 34.2677 17.7492L24.955 17.7672C22.103 17.7672 19.7034 19.7031 18.9984 22.3326C18.2933 19.7031 15.8937 17.7672 13.0418 17.7672L3.729 17.7492Z" fill="white"/>
<path d="M3.729 25.2805C4.25931 26.7623 5.55197 28.0647 7.09892 29.0576C9.14082 30.3683 11.6897 31.1835 13.7195 31.1835H24.2773C26.307 31.1835 28.8559 30.3683 30.8978 29.0576C32.4448 28.0647 33.7374 26.7623 34.2677 25.2805L24.955 25.2985C22.103 25.2985 19.7034 27.2344 18.9984 29.8639C18.2933 27.2344 15.8937 25.2985 13.0418 25.2985L3.729 25.2805Z" fill="white"/>
<path d="M3.729 8.58927C4.25931 7.10741 5.55197 5.80506 7.09892 4.81212C9.14082 3.50149 11.6897 2.68622 13.7195 2.68622H24.2773C26.307 2.68622 28.8559 3.50149 30.8978 4.81212C32.4448 5.80506 33.7374 7.10741 34.2677 8.58927L24.955 8.5713C22.103 8.5713 19.7034 6.63537 18.9984 4.00585C18.2933 6.63537 15.8937 8.5713 13.0418 8.5713L3.729 8.58927Z" fill="white"/>
<path d="M3.729 16.1205C4.25931 14.6387 5.55197 13.3363 7.09892 12.3434C9.14082 11.0327 11.6897 10.2175 13.7195 10.2175H24.2773C26.307 10.2175 28.8559 11.0327 30.8978 12.3434C32.4448 13.3363 33.7374 14.6387 34.2677 16.1205L24.955 16.1026C22.103 16.1026 19.7034 14.1666 18.9984 11.5371C18.2933 14.1666 15.8937 16.1026 13.0418 16.1026L3.729 16.1205Z" fill="white"/>
</g>
</g>
</svg>

<svg width="38" height="34" fill="none" xmlns="http://www.w3.org/2000/svg"><rect x=".572" y=".449" width="36.855" height="32.973" rx="16.487" fill="#000"/><g fill="#fff"><path d="M3.729 17.75c.53 1.481 1.823 2.783 3.37 3.776 2.042 1.311 4.59 2.126 6.62 2.126h10.558c2.03 0 4.579-.815 6.62-2.126 1.548-.993 2.84-2.295 3.37-3.777l-9.312.018a6.169 6.169 0 0 0-5.957 4.566 6.17 6.17 0 0 0-5.956-4.566l-9.313-.018zM3.729 25.28c.53 1.482 1.823 2.785 3.37 3.778 2.042 1.31 4.59 2.125 6.62 2.125h10.558c2.03 0 4.579-.815 6.62-2.125 1.548-.993 2.84-2.296 3.37-3.777l-9.312.018a6.169 6.169 0 0 0-5.957 4.565 6.17 6.17 0 0 0-5.956-4.566l-9.313-.017zM3.729 8.59c.53-1.483 1.823-2.785 3.37-3.778 2.042-1.31 4.59-2.126 6.62-2.126h10.558c2.03 0 4.579.815 6.62 2.126 1.548.993 2.84 2.295 3.37 3.777l-9.312-.018a6.169 6.169 0 0 1-5.957-4.565 6.17 6.17 0 0 1-5.956 4.565l-9.313.018zM3.729 16.12c.53-1.481 1.823-2.784 3.37-3.777 2.042-1.31 4.59-2.126 6.62-2.126h10.558c2.03 0 4.579.816 6.62 2.126 1.548.993 2.84 2.296 3.37 3.777l-9.312-.017a6.169 6.169 0 0 1-5.957-4.566 6.17 6.17 0 0 1-5.956 4.566l-9.313.017z"/></g></svg>
